X: 5
T: The Boys Of Ballinahinch
R: reel
M: 4/4
L: 1/8
K: Dmaj
|f~d3 e~B3|dcde faag|fdd=c AB=cB|AFdF EFD2|d3f e~B3|dcde faag|fdd=c AB=cB|AFdF EFD2||faab afdf|afdf gfed|faab afdf|gfed Bcde|faab afdf|abaf g2ga|(3(agf) gf gfef|g2gf gaag|


Tune 1348	Setting 14698

